packages/core/src/svgs/atlas.svg

<svg width="24" height="24" viewBox="0 0 24 24" fill="none" xmlns="http://www.w3.org/2000/svg">
<g clip-path="url(#clip0_31_6313)">
<path d="M0 0H24V24H0V0Z" fill="url(#paint0_linear_31_6313)"/>
<path d="M11.9999 9.42864L8.95702 16.3158C8.85845 16.5344 8.80274 16.7144 8.58417 16.7144H6.56988C6.28274 16.7144 6.12417 16.6329 6.26988 16.3158L11.1813 5.04007C11.2799 4.8515 11.3442 4.71436 11.567 4.71436H12.437C12.6556 4.71436 12.7156 4.8515 12.8227 5.04007L17.7342 16.3115C17.8756 16.6329 17.7127 16.7144 17.4256 16.7144H15.4156C15.197 16.7144 15.137 16.5344 15.0427 16.3158L11.9999 9.42436V9.42864Z" fill="white"/>
<path d="M12.0044 19.7141L9.99438 15.8569H13.9458L12.0044 19.7141Z" fill="#33FFFF"/>
</g>
<defs>
<linearGradient id="paint0_linear_31_6313" x1="4.46571" y1="4.16143" x2="29.2071" y2="32.58" gradientUnits="userSpaceOnUse">
<stop stop-color="#1A1E21"/>
<stop offset="1" stop-color="#06060A"/>
</linearGradient>
<clipPath id="clip0_31_6313">
<rect width="24" height="24" fill="white"/>
</clipPath>
</defs>
</svg>

<svg xmlns="http://www.w3.org/2000/svg" width="24" height="24" fill="none" viewBox="0 0 24 24"><g clip-path="url(#a)"><path fill="url(#b)" d="M0 0h24v24H0z"/><path fill="#fff" d="m12 9.429-3.043 6.887c-.099.218-.154.398-.373.398H6.57c-.287 0-.446-.081-.3-.398L11.18 5.04c.099-.189.163-.326.386-.326h.87c.219 0 .279.137.386.326l4.911 11.272c.142.32-.021.402-.308.402h-2.01c-.219 0-.279-.18-.373-.398L12 9.424z"/><path fill="#3FF" d="m12.004 19.714-2.01-3.857h3.952z"/></g><defs><linearGradient id="b" x1="4.466" x2="29.207" y1="4.161" y2="32.58" gradientUnits="userSpaceOnUse"><stop stop-color="#1A1E21"/><stop offset="1" stop-color="#06060A"/></linearGradient><clipPath id="a"><path fill="#fff" d="M0 0h24v24H0z"/></clipPath></defs></svg>
